X:1
T: The Bag of Praties
C:
R:Reel
I:speed 232
Q:232
K:D
M:4/4
L:1/8
|:dd dd d2AB|=cc cc B2A2|dd dd dA AF|AF EF D2D2|
dd dd d2AB|=cc cc B2A2|dd dd dA AF|AF EF D2D2|
B2AF AF ED|B2AF A2A2|B2AF AF ED|ED EF D2D2|
B2AF AF ED|B2AF A2A2|B2AF AF ED|ED EF D2D2:|
